assets/components_previews/charts/light/funnelchart.svg

<svg width="320" height="232" viewBox="0 0 320 232" fill="none" xmlns="http://www.w3.org/2000/svg">
<g filter="url(#filter0_dd_10191_39653)">
<rect x="52" y="62" width="216" height="108" rx="12" fill="white"/>
<mask id="mask0_10191_39653" style="mask-type:alpha" maskUnits="userSpaceOnUse" x="78" y="78" width="168" height="74">
<path d="M79.8605 85.2263C76.7418 82.9408 78.3584 78 82.2249 78H241.706C245.055 78 246.921 81.8697 244.836 84.4905L223.037 111.888C222.715 112.292 222.318 112.63 221.868 112.884L187 132.5L161.719 150.759C160.644 151.535 159.254 151.728 158.008 151.274L133.861 142.477C133.012 142.168 132.293 141.581 131.82 140.811L112.711 109.67C112.44 109.227 112.085 108.842 111.666 108.535L79.8605 85.2263Z" fill="#D9D9E0"/>
</mask>
<g mask="url(#mask0_10191_39653)">
<path d="M70 78L70 96L250 96V78L70 78Z" fill="#D4CAFE"/>
</g>
<g opacity="0.8">
<mask id="mask1_10191_39653" style="mask-type:alpha" maskUnits="userSpaceOnUse" x="78" y="79" width="168" height="74">
<path d="M79.8605 86.2263C76.7418 83.9408 78.3584 79 82.2249 79H241.706C245.055 79 246.921 82.8697 244.836 85.4905L223.037 112.888C222.715 113.292 222.318 113.63 221.868 113.884L187 133.5L161.719 151.759C160.644 152.535 159.254 152.728 158.008 152.274L133.861 143.477C133.012 143.168 132.293 142.581 131.82 141.811L112.711 110.67C112.44 110.227 112.085 109.842 111.666 109.535L79.8605 86.2263Z" fill="#D9D9E0"/>
</mask>
<g mask="url(#mask1_10191_39653)">
<path d="M70 98L70 116L250 116V98L70 98Z" fill="#D4CAFE"/>
</g>
</g>
<g opacity="0.6">
<mask id="mask2_10191_39653" style="mask-type:alpha" maskUnits="userSpaceOnUse" x="78" y="80" width="168" height="74">
<path d="M79.8605 87.2263C76.7418 84.9408 78.3584 80 82.2249 80H241.706C245.055 80 246.921 83.8697 244.836 86.4905L223.037 113.888C222.715 114.292 222.318 114.63 221.868 114.884L187 134.5L161.719 152.759C160.644 153.535 159.254 153.728 158.008 153.274L133.861 144.477C133.012 144.168 132.293 143.581 131.82 142.811L112.711 111.67C112.44 111.227 112.085 110.842 111.666 110.535L79.8605 87.2263Z" fill="#D9D9E0"/>
</mask>
<g mask="url(#mask2_10191_39653)">
<path d="M70 118L70 136L250 136V118L70 118Z" fill="#D4CAFE"/>
</g>
</g>
<g opacity="0.4">
<mask id="mask3_10191_39653" style="mask-type:alpha" maskUnits="userSpaceOnUse" x="78" y="81" width="168" height="74">
<path d="M79.8605 88.2263C76.7418 85.9408 78.3584 81 82.2249 81H241.706C245.055 81 246.921 84.8697 244.836 87.4905L223.037 114.888C222.715 115.292 222.318 115.63 221.868 115.884L187 135.5L161.719 153.759C160.644 154.535 159.254 154.728 158.008 154.274L133.861 145.477C133.012 145.168 132.293 144.581 131.82 143.811L112.711 112.67C112.44 112.227 112.085 111.842 111.666 111.535L79.8605 88.2263Z" fill="#D9D9E0"/>
</mask>
<g mask="url(#mask3_10191_39653)">
<path d="M70 138L70 156L250 156V138L70 138Z" fill="#D4CAFE"/>
</g>
</g>
</g>
<defs>
<filter id="filter0_dd_10191_39653" x="32" y="54" width="256" height="148" filterUnits="userSpaceOnUse" color-interpolation-filters="sRGB">
<feFlood flood-opacity="0" result="BackgroundImageFix"/>
<feColorMatrix in="SourceAlpha" type="matrix" values="0 0 0 0 0 0 0 0 0 0 0 0 0 0 0 0 0 0 127 0" result="hardAlpha"/>
<feOffset dy="12"/>
<feGaussianBlur stdDeviation="10"/>
<feComposite in2="hardAlpha" operator="out"/>
<feColorMatrix type="matrix" values="0 0 0 0 0 0 0 0 0 0 0 0 0 0 0 0 0 0 0.03 0"/>
<feBlend mode="normal" in2="BackgroundImageFix" result="effect1_dropShadow_10191_39653"/>
<feColorMatrix in="SourceAlpha" type="matrix" values="0 0 0 0 0 0 0 0 0 0 0 0 0 0 0 0 0 0 127 0" result="hardAlpha"/>
<feOffset dy="2"/>
<feGaussianBlur stdDeviation="3"/>
<feComposite in2="hardAlpha" operator="out"/>
<feColorMatrix type="matrix" values="0 0 0 0 0 0 0 0 0 0 0 0 0 0 0 0 0 0 0.05 0"/>
<feBlend mode="normal" in2="effect1_dropShadow_10191_39653" result="effect2_dropShadow_10191_39653"/>
<feBlend mode="normal" in="SourceGraphic" in2="effect2_dropShadow_10191_39653" result="shape"/>
</filter>
</defs>
</svg>

<svg xmlns="http://www.w3.org/2000/svg" width="320" height="232" fill="none" viewBox="0 0 320 232"><g filter="url(#a)"><rect width="216" height="108" x="52" y="62" fill="#fff" rx="12"/><mask id="b" width="168" height="74" x="78" y="78" maskUnits="userSpaceOnUse" style="mask-type:alpha"><path fill="#D9D9E0" d="M79.86 85.226C76.743 82.941 78.359 78 82.226 78h159.481c3.349 0 5.215 3.87 3.13 6.49l-21.799 27.398a4 4 0 0 1-1.169.996L187 132.5l-25.281 18.259a4 4 0 0 1-3.711.515l-24.147-8.797a4 4 0 0 1-2.041-1.666l-19.109-31.141a4 4 0 0 0-1.045-1.135z"/></mask><g mask="url(#b)"><path fill="#D4CAFE" d="M70 78v18h180V78z"/></g><g opacity=".8"><mask id="c" width="168" height="74" x="78" y="79" maskUnits="userSpaceOnUse" style="mask-type:alpha"><path fill="#D9D9E0" d="M79.86 86.226C76.743 83.941 78.359 79 82.226 79h159.481c3.349 0 5.215 3.87 3.13 6.49l-21.799 27.398a4 4 0 0 1-1.169.996L187 133.5l-25.281 18.259a4 4 0 0 1-3.711.515l-24.147-8.797a4 4 0 0 1-2.041-1.666l-19.109-31.141a4 4 0 0 0-1.045-1.135z"/></mask><g mask="url(#c)"><path fill="#D4CAFE" d="M70 98v18h180V98z"/></g></g><g opacity=".6"><mask id="d" width="168" height="74" x="78" y="80" maskUnits="userSpaceOnUse" style="mask-type:alpha"><path fill="#D9D9E0" d="M79.86 87.226C76.743 84.941 78.359 80 82.226 80h159.481c3.349 0 5.215 3.87 3.13 6.49l-21.799 27.398a4 4 0 0 1-1.169.996L187 134.5l-25.281 18.259a4 4 0 0 1-3.711.515l-24.147-8.797a4 4 0 0 1-2.041-1.666l-19.109-31.141a4 4 0 0 0-1.045-1.135z"/></mask><g mask="url(#d)"><path fill="#D4CAFE" d="M70 118v18h180v-18z"/></g></g><g opacity=".4"><mask id="e" width="168" height="74" x="78" y="81" maskUnits="userSpaceOnUse" style="mask-type:alpha"><path fill="#D9D9E0" d="M79.86 88.226C76.743 85.941 78.359 81 82.226 81h159.481c3.349 0 5.215 3.87 3.13 6.49l-21.799 27.398a4 4 0 0 1-1.169.996L187 135.5l-25.281 18.259a4 4 0 0 1-3.711.515l-24.147-8.797a4 4 0 0 1-2.041-1.666l-19.109-31.141a4 4 0 0 0-1.045-1.135z"/></mask><g mask="url(#e)"><path fill="#D4CAFE" d="M70 138v18h180v-18z"/></g></g></g><defs><filter id="a" width="256" height="148" x="32" y="54" color-interpolation-filters="sRGB" filterUnits="userSpaceOnUse"><feFlood flood-opacity="0" result="BackgroundImageFix"/><feColorMatrix in="SourceAlpha" result="hardAlpha" values="0 0 0 0 0 0 0 0 0 0 0 0 0 0 0 0 0 0 127 0"/><feOffset dy="12"/><feGaussianBlur stdDeviation="10"/><feComposite in2="hardAlpha" operator="out"/><feColorMatrix values="0 0 0 0 0 0 0 0 0 0 0 0 0 0 0 0 0 0 0.03 0"/><feBlend in2="BackgroundImageFix" result="effect1_dropShadow_10191_39653"/><feColorMatrix in="SourceAlpha" result="hardAlpha" values="0 0 0 0 0 0 0 0 0 0 0 0 0 0 0 0 0 0 127 0"/><feOffset dy="2"/><feGaussianBlur stdDeviation="3"/><feComposite in2="hardAlpha" operator="out"/><feColorMatrix values="0 0 0 0 0 0 0 0 0 0 0 0 0 0 0 0 0 0 0.05 0"/><feBlend in2="effect1_dropShadow_10191_39653" result="effect2_dropShadow_10191_39653"/><feBlend in="SourceGraphic" in2="effect2_dropShadow_10191_39653" result="shape"/></filter></defs></svg>
